packages/core/src/svgs/ztg.svg

<svg width="24" height="24" viewBox="0 0 24 24" fill="none" xmlns="http://www.w3.org/2000/svg">
<g clip-path="url(#clip0_31_21264)">
<path d="M0 0H24V24H0V0Z" fill="url(#paint0_linear_31_21264)"/>
<path d="M18.8574 12.4283H5.14307C5.18164 13.024 5.29307 13.5983 5.47307 14.1426H11.1431L11.5716 13.714H18.6516C18.7588 13.2983 18.8316 12.8697 18.8574 12.4283ZM18.1802 14.9997H5.82021C6.04309 15.4572 6.3162 15.8884 6.63449 16.2854H9.42021L9.85735 15.8569H17.6874C17.8716 15.5826 18.0388 15.2997 18.1845 14.9997H18.1802ZM16.5431 17.1426H7.45735C8.66592 18.2097 10.2559 18.8569 12.0002 18.8569C13.7402 18.8569 15.3345 18.2097 16.5431 17.1426ZM18.8145 11.1426H13.5002L13.0716 11.5711H5.14307C5.18164 10.9754 5.29307 10.4011 5.47307 9.85686H18.5274C18.6645 10.2683 18.7631 10.7011 18.8188 11.1426H18.8145ZM17.9531 8.57115C17.6829 8.10639 17.3593 7.67488 16.9888 7.28544H7.01164C6.52954 7.79288 6.12776 8.37097 5.82021 8.99972H15.0045L15.4331 8.57115H17.9531ZM7.99307 6.42829H16.0074C14.8802 5.61829 13.4959 5.14258 12.0002 5.14258C10.5045 5.14258 9.12021 5.61829 7.99307 6.42829Z" fill="white"/>
</g>
<defs>
<linearGradient id="paint0_linear_31_21264" x1="4.46571" y1="4.16143" x2="29.2071" y2="32.58" gradientUnits="userSpaceOnUse">
<stop stop-color="#1A1E21"/>
<stop offset="1" stop-color="#06060A"/>
</linearGradient>
<clipPath id="clip0_31_21264">
<rect width="24" height="24" fill="white"/>
</clipPath>
</defs>
</svg>

<svg xmlns="http://www.w3.org/2000/svg" width="24" height="24" fill="none" viewBox="0 0 24 24"><g clip-path="url(#a)"><path fill="url(#b)" d="M0 0h24v24H0z"/><path fill="#fff" d="M18.857 12.428H5.143q.06.896.33 1.715h5.67l.429-.429h7.08c.107-.416.18-.844.205-1.286M18.18 15H5.82q.336.688.814 1.285H9.42l.437-.428h7.83q.279-.409.497-.857zm-1.637 2.143H7.457A6.84 6.84 0 0 0 12 18.857c1.74 0 3.335-.647 4.543-1.714m2.271-6H13.5l-.428.428H5.143q.06-.896.33-1.714h13.054c.137.411.236.844.292 1.286zm-.86-2.572a7 7 0 0 0-.965-1.286H7.012A6.9 6.9 0 0 0 5.82 9h9.185l.428-.429zm-9.96-2.143h8.013A6.84 6.84 0 0 0 12 5.143c-1.495 0-2.88.475-4.007 1.285"/></g><defs><linearGradient id="b" x1="4.466" x2="29.207" y1="4.161" y2="32.58" gradientUnits="userSpaceOnUse"><stop stop-color="#1A1E21"/><stop offset="1" stop-color="#06060A"/></linearGradient><clipPath id="a"><path fill="#fff" d="M0 0h24v24H0z"/></clipPath></defs></svg>
